X:1
T:Title
%%score 1 2 3
L:1/8
M:3/2
K:C
V:1 treble nm="Part_1"
V:2 treble-8 nm="Part_2"
V:3 treble-8 nm="Part_3"
V:1
 E4 D4 G3 F | A4 G2 E4 E2 | G4 E4 D4 | z2 G4 G2 B2 B2 | A4 G6 E2 | D2 G4 F2 G2 _B2 | A4 G4 G3 E | %7
 E4 D2 G4 A2 | B6 AB c3 B | G2 A3 GFE E4- | E2 F2 D2 C2 E4- | E4 z4 z4 | C4 D4 E4 | F4 E6 G2 | %14
 F2 E2 G4 z2 c2 | B2 G2 G3 A B4- | B4 A4 e4 | d2 c3 B B4 A2 | B4 z2 E2 F4 | G4 F2 E2 D4 | C4 G8 | %21
 A4 B2 G3 E F2 | G2 B2 c2 BA G4 | E2 F2 D2 CD E4 | z4 G8 | D4 F4 E4- | E2 F2 G4 A4 | %27
 B3 c d3 c B2 A2- | AG G4 ^F2 G4 | c4 B4 A4- | A2 B2 A2 GF E4 | F3 E F2 G2 E2 A2- | %32
 A2 G2 A2 c2 B4 | A3 G FE E4 D2 | E4 !fermata!E4 z4 | G6 A2 B2 d2 | c2 B2 A4 G4 | z4 G4 d4 | %38
 e4 d3 c A4- | A2 B2 c3 _B G4 | F2 A4 _B2 A2 F2 | E2 F2 G2 _B2 A2 F2 | E6 F2 D2 C2 | E12 || G8 A4 | %45
 B4 c3 B G4 | !fermata!G8 z4 | A4 A2 A4 F2 | E4 D4 z2 G2 | G2 G2 A4 d3 c | _B2 A3 G G4 F2- | %51
 F2 D2 G4 z2 B2 | c4 A4 G2 B2 | A3 GFE E4 D2 | E4 z4 G4 | B8 A3 F | E6 D2 D4 | z2 G2 G2 G2 A2 _B2 | %58
 A2 GF E4 D2 A2 | G2 c4 B2 c4 | z2 d4 B2 A4- | A2 G2 F2 E2 E4 | z2 G4 B3 A AG | B4 c4 d3 B | %64
 c2 A4 F2 G2 B2- | BAB/A/GFE E4 D2 | E12 |] %67
V:2
 E4 F4 E4 | D4 E4 G4 | E4 C4 D4 | E4 E4 G4 | D4 G4 c4 | B4 A4 G4 | A4 B4 B4 | c4 B4 A4 | G4 G4 F4 | %9
 E4 D4 G4 | G4 F4 E4- | E4 C4 D4 | E4 F4 E4 | D4 G4 c4 | A4 G4 A4 | B4 B4 E4 | B4 c4 A4 | %17
 e4 d4 c4 | B4 c4 A4 | G4 A4 B4 | c4 B8 | c4 B4 A4 | G4 A4 E4 | A4 F4 E4 | D4 E4 E4 | G4 D4 G4 | %26
 A4 B4 c4 | B8 c4 | B4 A4 G4 | A4 E4 F4 | D4 F4 G4 | A4 A4 c4 | B4 A4 G4 | F4 G4 F4 | %34
 E4 !fermata!E4 z4 | B4 c4 B4 | A4 c4 e4 | d4 c4 B4 | c4 B4 c4 | A4 F4 E4 | F4 D4 F4 | A4 G4 F4 | %42
 G4 F4 E4 | E12 || c4 B4 A4 | G4 A4 B4 | B4 !fermata!B4 z4 | c4 A4 F4 | G4 F4 E4 | E4 F4 D4 | %50
 F4 G4 A4 | A4 G4 A4 | A4 D4 E4 | F4 G4 F4 | E4 D4 E4 | E4 G4 D4 | G4 A4 B4 | B4 B4 c4 | A4 c4 d4 | %59
 e4 d4 c4 | B4 B4 d4 | A4 d4 c4 | B4 B4 c4 | B4 A4 G4 | A4 F4 E4 | D4 E4 F4 | E12 |] %67
V:3
 B4 A4 c2 Bc | d4 B2 B4 G2 | B4 c4 A4 | G4 B2 e2 d2 d2- | d4 B2 d2 c2 e2- | ed d4 c2 d4 | %6
 D2 F2 E2 E4 E2 | C4 G4 c3 B | d6 e2 f2 d2- | d2 c2 d4 B4- | B2 A2 A2 G2 B4- | B4 c4 A4 | %12
 G4 A4 B2 c2 | d4 B4 A2 d2- | d2 c2 d4 c2 e2 | d2 d6 e4 | E2 G2 F2 A4 c2 | A4 z2 D2 A4 | %18
 E4 A2 B2 c2 Bc | d4 c3 B G4 | C4 E8 | C4 z2 E2 F2 D2 | d4 z4 e4 | c2 A2 A2 GA B4 | %24
 z2 d2 B2 e3 dcB | B4 A3 G B4 | c2 A2 G4 F4 | G4 z2 G2 F4 | G4 D4 d3 c | A4 G4 D4 | z2 d2 c3 A B4 | %31
 A2 D4 D2 C4 | G2 d4 c2 d2 B2 | c4 B2 G2 A4 | B4 !fermata!B4 z4 | E4 C4 G4 | A2 F4 F2 C4 | %37
 G4 z2 C2 G4 | C4 G4 F4 | A4 c3 d e4 | c2 Bc d4 c4- | c4 C2 _E2 F2 D2 | C8 A2 GA | B12 || %44
 C4 E4 F4 | z2 E2 F4 E4 | !fermata!E8 z4 | C2 F4 c4 c2 | B4 A4 B4 | z2 e2 c2 A4 A2 | D4 E4 D4- | %51
 D4 d4 c2 d2 | e4 d4 B4 | A2 d2 c2 B4 A2 | B3 c d4 B4 | z2 e2 d3 B d4 | B4 A4 G4 | E3 F G4 F2 F2- | %58
 F2 F2 C4 G2 d2 | c3 B G4 C4 | G4 z2 G2 D4 | D8 A4 | E8 z4 | G4 A2 c2 B3 A | F4 c3 d e2 c2 | %65
 d4 B2 G2 A2 GA | B12 |] %67

